src/assets/robotexticon.svg

<svg width="48" height="48" viewBox="0 0 48 48" fill="none" xmlns="http://www.w3.org/2000/svg">
<path opacity="0.4" d="M37.125 22.125H34.125V28.125H37.125V22.125Z" fill="#FF0000"/>
<path opacity="0.4" d="M9.375 22.125H6.375V28.125H9.375V22.125Z" fill="#FF0000"/>
<path opacity="0.4" d="M33.375 30.375H10.125V33H33.375V30.375Z" fill="#FF0000"/>
<path opacity="0.4" d="M33.75 42.375H9.75V44.25H33.75V42.375Z" fill="#FF0000"/>
<path opacity="0.4" d="M30.6004 17.7997L26.735 17.7583C26.5783 17.757 26.4234 17.7237 26.28 17.6604C26.1366 17.597 26.0077 17.505 25.9012 17.3899C25.6611 17.1361 25.5286 16.7992 25.5313 16.4499V5.24597C25.5313 4.52449 26.0749 3.9375 26.7431 3.9375H42.6021C43.2703 3.9375 43.814 4.52449 43.814 5.24597V16.4499C43.814 17.1714 43.2703 17.7583 42.6021 17.7583H33.5348L30.5839 20.9289L30.6004 17.7997Z" fill="#FF0000"/>
<path d="M42.6021 3H26.7431C25.5579 3 24.5938 4.00754 24.5938 5.24597V16.4499C24.5938 17.6883 25.5579 18.6958 26.735 18.6958L29.658 18.7272L29.6438 21.4043C29.643 21.5553 29.6878 21.703 29.7723 21.8281C29.8568 21.9532 29.9771 22.0499 30.1174 22.1055C30.2578 22.1611 30.4117 22.1731 30.5589 22.1399C30.7062 22.1067 30.84 22.0297 30.9428 21.9192L33.9429 18.6958H42.6021C43.7872 18.6958 44.7514 17.6883 44.7514 16.4499V5.24597C44.7514 4.00754 43.7872 3 42.6021 3ZM43.2514 16.4499C43.2514 16.8612 42.9601 17.1958 42.6021 17.1958H33.6164C33.5134 17.1958 33.4115 17.2171 33.317 17.2582C33.2226 17.2993 33.1376 17.3595 33.0674 17.4349L31.154 19.4907L31.1619 17.9892C31.163 17.791 31.0855 17.6004 30.9465 17.4592C30.8075 17.3179 30.6182 17.2374 30.42 17.2353L26.7431 17.1958C26.385 17.1958 26.0938 16.8612 26.0938 16.4499V5.24597C26.0938 4.83462 26.385 4.5 26.7431 4.5H42.6021C42.9601 4.5 43.2514 4.83463 43.2514 5.24597V16.4499Z" fill="#B30000"/>
<path d="M39.8764 6.73779H29.582C29.3831 6.73779 29.1924 6.81681 29.0517 6.95746C28.911 7.09811 28.832 7.28888 28.832 7.48779C28.832 7.68671 28.911 7.87747 29.0517 8.01812C29.1924 8.15878 29.3831 8.23779 29.582 8.23779H39.8764C40.0754 8.23779 40.2661 8.15878 40.4068 8.01812C40.5474 7.87747 40.6264 7.68671 40.6264 7.48779C40.6264 7.28888 40.5474 7.09811 40.4068 6.95746C40.2661 6.81681 40.0754 6.73779 39.8764 6.73779ZM39.8764 9.93042H29.582C29.3831 9.93042 29.1924 10.0094 29.0517 10.1501C28.911 10.2907 28.832 10.4815 28.832 10.6804C28.832 10.8793 28.911 11.0701 29.0517 11.2107C29.1924 11.3514 29.3831 11.4304 29.582 11.4304H39.8764C40.0754 11.4304 40.2661 11.3514 40.4068 11.2107C40.5474 11.0701 40.6264 10.8793 40.6264 10.6804C40.6264 10.4815 40.5474 10.2907 40.4068 10.1501C40.2661 10.0094 40.0754 9.93042 39.8764 9.93042ZM34.7292 13.2163H29.582C29.3831 13.2163 29.1924 13.2953 29.0517 13.436C28.911 13.5766 28.832 13.7674 28.832 13.9663C28.832 14.1652 28.911 14.356 29.0517 14.4966C29.1924 14.6373 29.3831 14.7163 29.582 14.7163H34.7292C34.9281 14.7163 35.1189 14.6373 35.2596 14.4966C35.4002 14.356 35.4792 14.1652 35.4792 13.9663C35.4792 13.7674 35.4002 13.5766 35.2596 13.436C35.1189 13.2953 34.9281 13.2163 34.7292 13.2163Z" fill="white"/>
<path d="M17.1687 17.458C15.8605 17.4595 14.6063 17.9798 13.6812 18.9048C12.7562 19.8299 12.2359 21.0841 12.2344 22.3923V24.3498C12.2358 25.658 12.7562 26.9122 13.6812 27.8373C14.6063 28.7623 15.8605 29.2827 17.1687 29.2841H26.3204C26.9684 29.2844 27.6101 29.1569 28.2089 28.909C28.8077 28.6611 29.3517 28.2977 29.8099 27.8394C30.2682 27.3812 30.6316 26.8371 30.8795 26.2384C31.1274 25.6396 31.2549 24.9979 31.2546 24.3498C31.2546 24.1509 31.1756 23.9601 31.035 23.8195C30.8943 23.6788 30.7036 23.5998 30.5046 23.5998C30.3057 23.5998 30.115 23.6788 29.9743 23.8195C29.8337 23.9601 29.7546 24.1509 29.7546 24.3498C29.7549 24.8009 29.6662 25.2476 29.4937 25.6644C29.3212 26.0811 29.0683 26.4598 28.7493 26.7788C28.4304 27.0977 28.0517 27.3507 27.6349 27.5232C27.2181 27.6957 26.7714 27.7844 26.3204 27.7841H17.1687C16.2582 27.7831 15.3852 27.421 14.7414 26.7771C14.0976 26.1333 13.7354 25.2603 13.7344 24.3498V22.3923C13.7354 21.4818 14.0976 20.6088 14.7414 19.965C15.3853 19.3212 16.2582 18.959 17.1687 18.958H22.3551C22.554 18.958 22.7448 18.879 22.8854 18.7383C23.0261 18.5977 23.1051 18.4069 23.1051 18.208C23.1051 18.0091 23.0261 17.8183 22.8854 17.6777C22.7448 17.537 22.554 17.458 22.3551 17.458H17.1687Z" fill="#B30000"/>
<path d="M15.7578 23.2121C15.7578 24.3791 16.6808 25.3285 17.8153 25.3285C18.9498 25.3285 19.8727 24.3791 19.8727 23.2121C19.8727 22.0451 18.9498 21.0957 17.8153 21.0957C16.6808 21.0957 15.7578 22.0451 15.7578 23.2121ZM18.3727 23.2121C18.3727 23.552 18.1227 23.8285 17.8153 23.8285C17.5079 23.8285 17.2578 23.552 17.2578 23.2121C17.2578 22.8722 17.5079 22.5957 17.8153 22.5957C18.1227 22.5957 18.3727 22.8722 18.3727 23.2121ZM24.7744 25.3285C25.9089 25.3285 26.8318 24.3791 26.8318 23.2121C26.8318 22.0451 25.9089 21.0957 24.7744 21.0957C23.6399 21.0957 22.7169 22.0451 22.7169 23.2121C22.7169 24.3791 23.6399 25.3285 24.7744 25.3285ZM24.7744 22.5957C25.0818 22.5957 25.3318 22.8722 25.3318 23.2121C25.3318 23.552 25.0818 23.8285 24.7744 23.8285C24.467 23.8285 24.2169 23.552 24.2169 23.2121C24.2169 22.8722 24.467 22.5957 24.7744 22.5957Z" fill="#B30000"/>
<path d="M35.9797 20.8303H33.8116C33.7131 20.8303 33.6155 20.8497 33.5246 20.8874C33.4336 20.9251 33.3509 20.9803 33.2812 21.05C33.2116 21.1196 33.1563 21.2023 33.1187 21.2933C33.081 21.3843 33.0616 21.4818 33.0616 21.5803V30.9619C33.0611 31.3904 32.8907 31.8012 32.5877 32.1041C32.2847 32.4071 31.8739 32.5775 31.4455 32.578H12.0471C11.6186 32.5775 11.2079 32.4071 10.9049 32.1041C10.6019 31.8012 10.4315 31.3904 10.431 30.9619V18.8047C10.4325 17.4899 10.9555 16.2295 11.8851 15.2998C12.8148 14.3702 14.0752 13.8472 15.39 13.8458H22.058C22.2569 13.8458 22.4477 13.7667 22.5884 13.6261C22.729 13.4854 22.808 13.2947 22.808 13.0958C22.808 12.8969 22.729 12.7061 22.5884 12.5654C22.4477 12.4248 22.2569 12.3458 22.058 12.3458H15.39C13.6775 12.3477 12.0358 13.0288 10.8249 14.2397C9.61407 15.4505 8.93295 17.0923 8.93101 18.8047V20.8303H7.51291C7.28078 20.8303 7.05016 20.8675 6.82979 20.9404V15.8327C7.43507 15.6517 7.96518 15.2791 8.34027 14.7707C8.71537 14.2624 8.91514 13.646 8.90949 13.0142C8.90949 11.4023 7.64007 10.0908 6.07978 10.0908C4.5195 10.0908 3.25012 11.4023 3.25012 13.0142C3.24447 13.6459 3.44423 14.2624 3.81932 14.7707C4.19441 15.2791 4.72451 15.6517 5.32979 15.8327V27.1256C5.33043 27.6977 5.558 28.2463 5.96257 28.6508C6.36714 29.0554 6.91567 29.283 7.48782 29.2836H8.93101V30.9619C8.93195 31.7881 9.26055 32.5801 9.84473 33.1643C10.4289 33.7485 11.221 34.0771 12.0471 34.078H13.3055C11.9648 34.9361 10.8615 36.1177 10.097 37.514C9.3326 38.9103 8.93162 40.4764 8.93101 42.0682V44.2496C8.93101 44.3481 8.95041 44.4457 8.9881 44.5367C9.02579 44.6277 9.08103 44.7103 9.15068 44.78C9.22032 44.8496 9.303 44.9049 9.394 44.9426C9.48499 44.9803 9.58252 44.9997 9.68101 44.9996H33.8116C33.9101 44.9997 34.0076 44.9803 34.0986 44.9426C34.1896 44.9049 34.2723 44.8496 34.3419 44.78C34.4115 44.7103 34.4668 44.6277 34.5045 44.5367C34.5422 44.4457 34.5616 44.3481 34.5616 44.2496V41.9697C34.561 40.3992 34.1665 38.8539 33.4144 37.4753C32.6622 36.0966 31.5763 34.9286 30.2561 34.078H31.4455C32.2716 34.0771 33.0637 33.7485 33.6479 33.1643C34.232 32.5801 34.5606 31.7881 34.5616 30.9619V29.2836H36.0048C36.5769 29.283 37.1254 29.0554 37.53 28.6508C37.9346 28.2463 38.1621 27.6977 38.1628 27.1256V23.0134C38.1621 22.4346 37.9319 21.8797 37.5226 21.4705C37.1134 21.0612 36.5585 20.831 35.9797 20.8303ZM4.75012 13.0142C4.75012 12.2294 5.34659 11.5908 6.07979 11.5908C6.81299 11.5908 7.40949 12.2294 7.40949 13.0142C7.40949 13.7991 6.81298 14.4377 6.07978 14.4377C5.34658 14.4377 4.75012 13.7991 4.75012 13.0142ZM7.48782 27.7836C7.31336 27.7834 7.14611 27.714 7.02275 27.5907C6.89939 27.4673 6.82999 27.3 6.82979 27.1256V23.0134C6.82999 22.8323 6.90202 22.6587 7.03009 22.5306C7.15816 22.4026 7.3318 22.3305 7.51291 22.3303H8.93101V27.7836L7.48782 27.7836ZM25.1699 34.078C25.9706 34.0774 26.7667 34.1992 27.5307 34.439L25.4033 37.0205C25.3399 37.0977 25.2601 37.1598 25.1697 37.2025C25.0794 37.2451 24.9807 37.2671 24.8807 37.267H17.9829C17.8765 37.2668 17.7715 37.2416 17.6766 37.1934C17.5817 37.1452 17.4994 37.0754 17.4364 36.9896L15.6648 34.5684C16.5474 34.2432 17.4807 34.0772 18.4213 34.078H25.1699ZM33.0616 41.9697V43.4996H10.431V42.0682C10.4317 40.6927 10.7874 39.3407 11.4636 38.1429C12.1397 36.9451 13.1136 35.9421 14.2909 35.2308L16.2258 37.8754C16.4284 38.1512 16.693 38.3757 16.9982 38.5305C17.3034 38.6854 17.6407 38.7664 17.9829 38.767H24.8807C25.202 38.7675 25.5194 38.6966 25.8099 38.5596C26.1005 38.4225 26.357 38.2226 26.5609 37.9744L28.9674 35.0543C30.2063 35.7351 31.2397 36.7359 31.9599 37.9523C32.68 39.1687 33.0605 40.5561 33.0616 41.9697ZM36.6628 27.1256C36.6626 27.3 36.5932 27.4673 36.4698 27.5907C36.3465 27.714 36.1792 27.7834 36.0048 27.7836H34.5616V22.3303H35.9797C36.1608 22.3305 36.3344 22.4026 36.4625 22.5306C36.5906 22.6587 36.6626 22.8323 36.6628 23.0134L36.6628 27.1256Z" fill="#B30000"/>
</svg>

<svg width="48" height="48" viewBox="0 0 48 48" fill="none" xmlns="http://www.w3.org/2000/svg">
    <path opacity=".4" d="M37.125 22.125h-3v6h3v-6zM9.375 22.125h-3v6h3v-6zM33.375 30.375h-23.25V33h23.25v-2.625zM33.75 42.375h-24v1.875h24v-1.875zM30.6 17.8l-3.865-.042a1.15 1.15 0 0 1-.834-.368 1.353 1.353 0 0 1-.37-.94V5.246c0-.722.544-1.309 1.212-1.309h15.86c.667 0 1.211.587 1.211 1.309V16.45c0 .721-.544 1.308-1.212 1.308h-9.067l-2.951 3.17.016-3.128z" fill="red"/>
    <path d="M42.602 3H26.743c-1.185 0-2.15 1.008-2.15 2.246V16.45c0 1.238.965 2.246 2.142 2.246l2.923.031-.014 2.677a.75.75 0 0 0 1.299.515l3-3.223h8.66c1.184 0 2.148-1.008 2.148-2.246V5.246c0-1.238-.964-2.246-2.149-2.246zm.65 13.45c0 .411-.292.746-.65.746h-8.986a.75.75 0 0 0-.549.239l-1.913 2.056.008-1.502a.75.75 0 0 0-.742-.754l-3.677-.04c-.358 0-.65-.334-.65-.745V5.246c0-.411.292-.746.65-.746h15.86c.357 0 .648.335.648.746V16.45z" fill="#004498"/>
    <path d="M39.876 6.738H29.58a.75.75 0 1 0 0 1.5h10.295a.75.75 0 1 0 0-1.5zm0 3.193H29.58a.75.75 0 0 0 0 1.5h10.295a.75.75 0 1 0 0-1.5zm-5.148 3.285h-5.147a.75.75 0 1 0 0 1.5h5.147a.75.75 0 1 0 0-1.5z" fill="#fff"/>
    <path d="M17.169 17.458a4.94 4.94 0 0 0-4.935 4.934v1.958a4.94 4.94 0 0 0 4.935 4.934h9.151a4.933 4.933 0 0 0 4.935-4.934.75.75 0 0 0-1.5 0 3.432 3.432 0 0 1-3.435 3.434H17.17a3.438 3.438 0 0 1-3.435-3.434v-1.958a3.438 3.438 0 0 1 3.435-3.434h5.186a.75.75 0 0 0 0-1.5H17.17z" fill="#004498"/>
    <path d="M15.758 23.212c0 1.167.923 2.117 2.057 2.117 1.135 0 2.058-.95 2.058-2.117s-.923-2.116-2.058-2.116c-1.134 0-2.057.95-2.057 2.116zm2.615 0c0 .34-.25.617-.558.617-.307 0-.557-.277-.557-.617 0-.34.25-.616.557-.616.308 0 .558.276.558.616zm6.401 2.117c1.135 0 2.058-.95 2.058-2.117s-.923-2.116-2.058-2.116c-1.134 0-2.057.95-2.057 2.116 0 1.167.923 2.117 2.057 2.117zm0-2.733c.308 0 .558.276.558.616 0 .34-.25.617-.558.617-.307 0-.557-.277-.557-.617 0-.34.25-.616.557-.616z" fill="#004498"/>
    <path d="M35.978 20.83H33.81a.75.75 0 0 0-.75.75v9.382a1.618 1.618 0 0 1-1.617 1.616H12.046a1.618 1.618 0 0 1-1.616-1.616V18.805a4.964 4.964 0 0 1 4.959-4.959h6.668a.75.75 0 0 0 0-1.5h-6.668a6.467 6.467 0 0 0-6.459 6.459v2.026H7.511c-.232 0-.463.037-.683.11v-5.108a2.915 2.915 0 0 0 2.08-2.818c0-1.612-1.27-2.924-2.83-2.924s-2.83 1.312-2.83 2.924a2.914 2.914 0 0 0 2.08 2.818v11.293a2.16 2.16 0 0 0 2.158 2.158h1.443v1.678a3.12 3.12 0 0 0 3.116 3.116h1.259a9.49 9.49 0 0 0-4.375 7.99v2.182a.75.75 0 0 0 .75.75h24.13a.75.75 0 0 0 .75-.75v-2.28a9.392 9.392 0 0 0-4.305-7.892h1.19a3.12 3.12 0 0 0 3.116-3.116v-1.678h1.443a2.16 2.16 0 0 0 2.158-2.158v-4.112a2.185 2.185 0 0 0-2.183-2.183zm-31.23-7.815c0-.785.597-1.424 1.33-1.424.733 0 1.33.639 1.33 1.424 0 .784-.597 1.423-1.33 1.423-.733 0-1.33-.639-1.33-1.423zm2.738 14.769a.659.659 0 0 1-.658-.658v-4.112a.684.684 0 0 1 .683-.683h1.418v5.453H7.486zm17.682 6.294c.8 0 1.597.122 2.36.361l-2.127 2.582a.675.675 0 0 1-.522.246H17.98a.679.679 0 0 1-.547-.277l-1.771-2.421a7.95 7.95 0 0 1 2.756-.49h6.749zm7.892 7.892v1.53H10.43v-1.431a7.993 7.993 0 0 1 3.859-6.838l1.935 2.645a2.185 2.185 0 0 0 1.757.891h6.898a2.17 2.17 0 0 0 1.68-.792l2.406-2.92a7.896 7.896 0 0 1 4.095 6.915zm3.6-14.844a.659.659 0 0 1-.657.658H34.56v-5.453h1.418a.684.684 0 0 1 .683.683v4.112z" fill="#004498"/>
</svg>
